Sources/FrostedUI/Resources/Icons.xcassets/discordFilled16.imageset/discord-filled-16.svg

<svg width="16" height="16" viewBox="0 0 16 16" fill="none" xmlns="http://www.w3.org/2000/svg" data-fui-icon="true">
  <path
    d="M10.0647 2.41309C11.1097 2.59081 12.1275 2.90514 13.0911 3.34863C14.751 5.78853 15.5753 8.54072 15.2708 11.7158C14.1493 12.5493 12.8932 13.1821 11.5579 13.5869C11.2572 13.1813 10.9911 12.7507 10.7629 12.2998C11.1976 12.1365 11.6173 11.9353 12.0168 11.6982C11.913 11.6275 11.8106 11.5482 11.7102 11.4658C10.5497 12.0144 9.28268 12.2998 8.00024 12.2998C6.71766 12.2998 5.45089 12.0145 4.29028 11.4658C4.19117 11.5423 4.08852 11.6218 3.98364 11.6982C4.38235 11.9348 4.80088 12.136 5.23462 12.2988C5.00617 12.75 4.74013 13.1807 4.4397 13.5869C3.10546 13.1805 1.85007 12.5477 0.72876 11.7148C0.469206 8.97684 0.988618 6.19874 2.90356 3.35059C3.86808 2.90707 4.88635 2.5923 5.93188 2.41309C6.07472 2.66995 6.20435 2.93457 6.31958 3.20508C7.43247 3.03653 8.56411 3.03651 9.677 3.20508C9.79221 2.9345 9.92178 2.66994 10.0647 2.41309ZM5.56079 7.08105C4.81937 7.08134 4.2426 7.74719 4.24243 8.55859C4.24243 9.37039 4.84043 10.0303 5.56372 10.0303C6.30079 10.0302 6.87032 9.37034 6.88306 8.55859C6.89555 7.74702 6.30244 7.08105 5.56079 7.08105ZM10.4368 7.08105C9.69394 7.08105 9.11662 7.74702 9.11646 8.55859C9.11646 9.37039 9.7123 10.0303 10.4368 10.0303C11.1737 10.03 11.7425 9.37022 11.7551 8.55859C11.7677 7.74719 11.1794 7.08133 10.4368 7.08105Z"
    fill="currentColor"
  />
</svg>

<svg xmlns="http://www.w3.org/2000/svg" width="16" height="16" fill="none" data-fui-icon="true" viewBox="0 0 16 16"><path fill="currentColor" d="M10.065 2.413c1.045.178 2.063.492 3.026.936 1.66 2.44 2.484 5.192 2.18 8.367a12.1 12.1 0 0 1-3.713 1.87 9 9 0 0 1-.795-1.286 8 8 0 0 0 1.254-.602 4 4 0 0 1-.307-.232 8.68 8.68 0 0 1-7.42 0c-.099.076-.201.156-.306.232q.599.356 1.25.6a9 9 0 0 1-.794 1.289 12.2 12.2 0 0 1-3.711-1.872c-.26-2.738.26-5.516 2.175-8.364a12.2 12.2 0 0 1 3.028-.938q.214.386.388.792a11.2 11.2 0 0 1 3.357 0q.173-.406.388-.792M5.56 7.081c-.742 0-1.318.666-1.319 1.478s.598 1.471 1.322 1.471c.737 0 1.306-.66 1.32-1.471.012-.812-.582-1.478-1.323-1.478m4.876 0c-.743 0-1.32.666-1.32 1.478s.595 1.471 1.32 1.471c.737 0 1.306-.66 1.318-1.471.013-.812-.576-1.478-1.318-1.478"/></svg>
